X: 12801
T: Feather Hammer, The
R: jig
M: 6/8
K: Adorian
|:"Am"AGA [c3e]|AGA ~c3|"C"EDE ~G3|EDE ~G3|"Am"AGA ~c3|
AGA cde|1 "G"dGB "D"ADF|"Am"EAA AGA:|2 "G"geg "D"fdf|"Am"ecA AB/c/d||
|:"Am"eaf "Em"ggg|"Eb"^dgd "Bb"=fd_B|"F"cAA =fAA|AGA ~c3|
"Bb"dge =fgf|"Dm"AGA d=FG|"E"EBB dBB|"E7"eBB dBB:|

